Obsidian-SemiLight/actions/22s/distribute-remove-overlaps.svg

<svg viewBox="0 0 22 22" xmlns="http://www.w3.org/2000/svg"><path d="m3 3v4h4v-4zm5 0v16h6v-16zm7 0v16h4v-16zm-11 1h2v2h-2zm5 0h4v14h-4zm7 0h2v14h-2zm-13 4v11h4v-11zm1 1h2v9h-2z" fill="#4d4d4d"/></svg>

<svg xmlns="http://www.w3.org/2000/svg" viewBox="0 0 22 22">
  <defs id="defs3051">
    <style type="text/css" id="current-color-scheme">
      .ColorScheme-Text {
        color:#4d4d4d;
      }
      </style>
  </defs>
 <path 
    style="fill:currentColor;fill-opacity:1;stroke:none" 
   d="M 3 3 L 3 7 L 7 7 L 7 3 L 3 3 z M 8 3 L 8 19 L 14 19 L 14 3 L 8 3 z M 15 3 L 15 19 L 19 19 L 19 3 L 15 3 z M 4 4 L 6 4 L 6 6 L 4 6 L 4 4 z M 9 4 L 13 4 L 13 18 L 9 18 L 9 4 z M 16 4 L 18 4 L 18 18 L 16 18 L 16 4 z M 3 8 L 3 19 L 7 19 L 7 8 L 3 8 z M 4 9 L 6 9 L 6 18 L 4 18 L 4 9 z "
    class="ColorScheme-Text"
    />
</svg>
